src/assets/outline/Refresh.svg

<?xml version="1.0" encoding="UTF-8"?>
<svg width="24" height="24" viewBox="0 0 24 24" xmlns="http://www.w3.org/2000/svg">
 <path d="m14.55 22.42c-0.33 0-0.64-0.22-0.73-0.56-0.11-0.4 0.13-0.81 0.54-0.92 4.06-1.07 6.89-4.75 6.89-8.95 0-5.1-4.15-9.25-9.25-9.25-4.33 0-7.17 2.53-8.5 4.06h2.94c0.41 0 0.75 0.34 0.75 0.75s-0.33 0.76-0.75 0.76h-4.43c-0.05 0-0.14-0.01-0.21-0.03-0.09-0.03-0.17-0.07-0.24-0.12-0.09-0.06-0.16-0.14-0.21-0.23s-0.09-0.2-0.1-0.31v-0.08-4.54c0-0.41 0.34-0.75 0.75-0.75s0.75 0.34 0.75 0.75v2.39c1.63-1.75 4.7-4.14 9.25-4.14 5.93 0 10.75 4.82 10.75 10.75 0 4.88-3.29 9.16-8.01 10.4-0.06 0.01-0.13 0.02-0.19 0.02z"/>
 <path d="m11.29 22.73c-0.02 0-0.04-0.01-0.05-0.01-1.08-0.07-2.14-0.31-3.14-0.7-0.29-0.11-0.49-0.4-0.48-0.71 0-0.09 0.02-0.18 0.05-0.26 0.15-0.38 0.6-0.57 0.97-0.43 0.87 0.34 1.78 0.54 2.7 0.61 0.39 0.02 0.7 0.36 0.7 0.76l-0.01 0.04c-0.02 0.39-0.35 0.7-0.74 0.7zm-5.51-2.15c-0.17 0-0.33-0.06-0.47-0.16-0.84-0.68-1.58-1.47-2.18-2.35-0.09-0.13-0.14-0.27-0.14-0.42 0-0.25 0.12-0.48 0.33-0.62 0.33-0.23 0.81-0.14 1.04 0.18v0.01c0.01 0.01 0.02 0.03 0.03 0.04 0.52 0.75 1.15 1.42 1.86 1.98 0.17 0.14 0.28 0.35 0.28 0.58 0 0.17-0.05 0.34-0.16 0.48-0.15 0.18-0.36 0.28-0.59 0.28zm-3.34-4.88c-0.33 0-0.62-0.21-0.71-0.52-0.32-1.03-0.48-2.1-0.48-3.18v-0.01c0.01-0.41 0.34-0.74 0.75-0.74s0.75 0.34 0.75 0.75c0 0.94 0.14 1.86 0.41 2.73 0.02 0.08 0.03 0.15 0.03 0.23 0 0.32-0.21 0.61-0.53 0.71-0.07 0.02-0.14 0.03-0.22 0.03z"/>
</svg>

<svg width="24" height="24" viewBox="0 0 24 24"  xmlns="http://www.w3.org/2000/svg">
<path d="M14.55 22.42C14.22 22.42 13.91 22.2 13.82 21.86C13.71 21.46 13.95 21.05 14.36 20.94C18.42 19.87 21.25 16.19 21.25 11.99C21.25 6.89 17.1 2.74 12 2.74C7.67 2.74 4.83 5.27 3.5 6.8H6.44C6.85 6.8 7.19 7.14 7.19 7.55C7.19 7.96 6.86 8.31 6.44 8.31H2.01C1.96 8.31 1.87 8.3 1.8 8.28C1.71 8.25 1.63 8.21 1.56 8.16C1.47 8.1 1.4 8.02 1.35 7.93C1.3 7.84 1.26 7.73 1.25 7.62C1.25 7.59 1.25 7.57 1.25 7.54V3C1.25 2.59 1.59 2.25 2 2.25C2.41 2.25 2.75 2.59 2.75 3V5.39C4.38 3.64 7.45 1.25 12 1.25C17.93 1.25 22.75 6.07 22.75 12C22.75 16.88 19.46 21.16 14.74 22.4C14.68 22.41 14.61 22.42 14.55 22.42Z" />
<path d="M11.29 22.73C11.27 22.73 11.25 22.72 11.24 22.72C10.16 22.65 9.1 22.41 8.1 22.02C7.81 21.91 7.61 21.62 7.62 21.31C7.62 21.22 7.64 21.13 7.67 21.05C7.82 20.67 8.27 20.48 8.64 20.62C9.51 20.96 10.42 21.16 11.34 21.23C11.73 21.25 12.04 21.59 12.04 21.99L12.03 22.03C12.01 22.42 11.68 22.73 11.29 22.73ZM5.78 20.58C5.61 20.58 5.45 20.52 5.31 20.42C4.47 19.74 3.73 18.95 3.13 18.07C3.04 17.94 2.99 17.8 2.99 17.65C2.99 17.4 3.11 17.17 3.32 17.03C3.65 16.8 4.13 16.89 4.36 17.21C4.36 17.22 4.36 17.22 4.36 17.22C4.37 17.23 4.38 17.25 4.39 17.26C4.91 18.01 5.54 18.68 6.25 19.24C6.42 19.38 6.53 19.59 6.53 19.82C6.53 19.99 6.48 20.16 6.37 20.3C6.22 20.48 6.01 20.58 5.78 20.58ZM2.44 15.7C2.11 15.7 1.82 15.49 1.73 15.18C1.41 14.15 1.25 13.08 1.25 12V11.99C1.26 11.58 1.59 11.25 2 11.25C2.41 11.25 2.75 11.59 2.75 12C2.75 12.94 2.89 13.86 3.16 14.73C3.18 14.81 3.19 14.88 3.19 14.96C3.19 15.28 2.98 15.57 2.66 15.67C2.59 15.69 2.52 15.7 2.44 15.7Z" />
</svg>
